X: 1
T: Fox In The Henhouse, The
M: 6/8
L: 1/8
R: jig
K: Amaj
|:EAA GAA|cBA BAF|
EAA GAA|ecc BcB|
EAA GAA|cBA BAF|
cef ecB|ABA A3:||
aee fec|efe ecB|
aee fee|cee fee|
aee fec|efe ecB|
cef ecB|ABA A3:||
